public/logos/natura.svg

<svg width="267" height="200" viewBox="0 0 267 200" fill="none" xmlns="http://www.w3.org/2000/svg">
<path d="M23.4388 151.75C39.4318 151.75 46.8572 161.95 46.8572 171.64V193.1H36.7595V171.64C36.7595 165.52 33.21 155.626 23.4388 155.626C13.6675 155.626 10.0976 165.5 10.0976 171.64V193.1H0V171.64C0 161.869 7.42532 151.75 23.4388 151.75Z" fill="white"/>
<path d="M162.644 193.814C146.63 193.814 139.205 183.614 139.205 173.904V152.404H149.303V173.904C149.303 180.024 152.852 189.918 162.644 189.918C172.435 189.918 175.965 180.045 175.965 173.904V152.404H186.062V173.904C186.062 183.676 178.637 193.814 162.644 193.814Z" fill="white"/>
<path d="M87.6965 190.183C85.3276 192.038 82.5145 193.241 79.5368 193.671C69.3371 195.283 55.0576 188.571 54.5069 173.68C53.9765 158.462 68.9699 152.036 78.7616 152.281C95.285 152.73 101.201 165.194 101.201 172.293V193.1H91.0011V172.395C91.0011 167.887 88.9612 156.279 78.476 156.075C67.9908 155.871 64.9513 165.316 64.9309 172.395C64.9309 176.903 65.8896 188.061 77.6804 188.714C81.2911 188.918 86.4317 187.919 87.7781 186.674L87.6965 190.183Z" fill="white"/>
<path d="M132.963 199.22C129.947 200.177 126.72 200.255 123.661 199.444C118.928 198.22 111.034 196.078 111.034 179.718C111.034 174.271 111.034 134.534 111.034 134.534H121.233V152.485H130.637V158.829H121.233C121.233 158.829 121.478 171.538 121.233 181.819C121.029 190.979 123.824 194.059 125.823 195.14C128.072 196.051 130.556 196.209 132.902 195.589L132.963 199.22Z" fill="white"/>
<path d="M195.629 170.314C195.629 160.257 200.831 153.158 209.909 152.24C216.355 151.588 218.681 152.791 218.681 152.791V156.871C216.332 156.313 213.878 156.376 211.561 157.055C207.481 158.319 205.768 164.623 205.768 166.744V193.263H195.568L195.629 170.314Z" fill="white"/>
<path d="M252.849 190.183C250.478 192.035 247.666 193.237 244.689 193.672C234.489 195.283 220.21 188.572 219.68 173.68C219.088 158.422 234.081 152.037 243.873 152.302C260.397 152.751 266.312 165.215 266.312 172.314V193.1H256.113V172.395C256.113 167.887 254.073 156.28 243.587 156.076C233.102 155.872 230.063 165.317 230.042 172.395C230.042 176.903 231.021 188.062 242.792 188.715C246.423 188.919 251.543 187.919 252.89 186.675L252.849 190.183Z" fill="white"/>
<path d="M127.088 17.3601C123.212 24.8466 118.684 40.9212 118.684 40.9212C118.684 40.9212 118.276 42.1248 117.46 40.7376C116.909 39.8401 110.463 31.048 107.26 27.0905C103.527 22.5415 86.9628 5.05929 67.9303 14.9733C50.7949 23.9694 57.3635 45.7967 62.6265 54.0176C65.8292 58.995 71.9898 66.7875 73.7441 68.9702C74.0501 69.3578 73.9685 69.5006 73.4789 69.3782C72.0102 68.9906 68.1751 67.9707 61.2394 66.1755C54.9564 64.564 48.8774 64.8088 47.0618 67.5219C45.7767 69.5618 45.0219 72.5401 47.531 77.1708C52.5697 86.2484 66.4412 100.671 89.2272 105.383C89.676 105.383 89.6352 105.832 89.2272 106.505C88.6794 107.402 88.4172 108.444 88.4755 109.493C88.5338 110.543 88.9098 111.549 89.5536 112.38C92.9602 116.46 96.7137 117.949 111.83 120.54C132.841 124.15 140.225 117.031 141.103 116.113C141.139 116.089 141.181 116.077 141.225 116.077C141.268 116.077 141.311 116.089 141.347 116.113C152.222 118.676 163.636 117.631 173.864 113.135C188.49 107.015 194.079 101.283 194.263 97.8148C194.447 94.347 186.715 95.0609 184.451 94.4694C183.757 94.2858 183.961 93.9798 184.451 93.7146C185.491 93.0618 188.062 92.001 190.122 90.9199C192.182 89.8387 213.622 79.0679 217.845 60.8513C222.067 42.6348 205.605 42.492 196.711 46.2862C187.817 50.0805 179.474 54.242 177.597 55.1191C177.291 55.2619 177.209 55.1191 177.332 54.8335C179.693 49.1096 181.602 43.2099 183.043 37.1882C184.9 28.5389 184.043 4.8961 160.604 0.469453C158.91 0.149664 157.188 -0.00744336 155.464 0.000270813C149.601 0.0358242 143.86 1.67152 138.86 4.73085C133.859 7.79017 129.789 12.157 127.088 17.3601ZM128.006 54.5072C129.842 49.3053 130.474 46.633 133.534 36.5966C137.329 24.0918 145.57 14.3002 158.85 18.2372C174.415 22.9903 170.783 38.6365 168.274 45.1031C166.234 50.2437 164.664 55.5067 161.318 64.0336C158.666 70.949 164.378 71.153 167.438 70.4798C170.926 69.6842 181.044 64.4824 187.389 61.5041C192.101 59.3418 200.811 54.0788 205.748 59.1786C210.684 64.2784 205.136 73.1317 199.22 78.4355C193.304 83.7393 177.556 90.3487 172.701 92.2866C167.846 94.2246 166.03 96.9989 168.417 98.5084C170.804 100.018 177.76 101.222 179.841 101.487C181.575 101.691 183.268 102.139 183.268 103.343C183.268 104.853 179.188 107.953 169.58 111.197C163.134 113.211 156.349 113.904 149.629 113.237C141.266 111.686 139.94 110.34 136.044 111.829C133.147 112.992 132.902 115.317 128.679 116.99C124.457 118.663 118.235 118.316 113.462 117.5C108.688 116.684 100.365 115.909 99.5084 112.094C99.1616 110.564 100.814 109.626 102.201 108.014C103.588 106.403 104.792 103.547 98.774 102.262C97.1625 101.935 80.5167 99.2632 70.215 94.1022C59.9134 88.9411 55.9355 80.6794 56.9351 77.7827C57.8122 75.4368 60.1582 75.2124 63.3405 75.7428C66.9919 76.4364 82.9442 80.7814 87.8196 80.8426C89.8595 80.8426 91.3487 80.455 92.0423 79.2311C93.9394 75.9264 88.1256 71.9485 83.3522 66.1551C76.4572 57.9954 63.3405 44.2667 73.1525 32.0271C79.7007 23.8674 92.593 29.212 97.9784 35.4338C102.058 40.2277 109.239 49.9785 114.747 56.5879C115.523 57.6772 116.528 58.5845 117.69 59.2468C118.853 59.909 120.145 60.3104 121.478 60.4229C124.232 60.4229 126.741 58.383 128.149 54.3032" fill="white"/>
</svg>

<svg xmlns="http://www.w3.org/2000/svg" width="267" height="200" fill="none"><path fill="#fff" d="M23.439 151.75c15.993 0 23.418 10.2 23.418 19.89v21.46H36.76v-21.46c0-6.12-3.55-16.014-13.321-16.014S10.098 165.5 10.098 171.64v21.46H0v-21.46c0-9.771 7.425-19.89 23.439-19.89M162.644 193.814c-16.014 0-23.439-10.2-23.439-19.91v-21.5h10.098v21.5c0 6.12 3.549 16.014 13.341 16.014s13.321-9.873 13.321-16.014v-21.5h10.097v21.5c0 9.772-7.425 19.91-23.418 19.91M87.697 190.183a17.23 17.23 0 0 1-8.16 3.488c-10.2 1.612-24.48-5.1-25.03-19.991-.53-15.218 14.463-21.644 24.255-21.399 16.523.449 22.439 12.913 22.439 20.012V193.1h-10.2v-20.705c0-4.508-2.04-16.116-12.525-16.32s-13.525 9.241-13.545 16.32c0 4.508.959 15.666 12.75 16.319 3.61.204 8.75-.795 10.097-2.04zM132.963 199.22a16.65 16.65 0 0 1-9.302.224c-4.733-1.224-12.627-3.366-12.627-19.726v-45.184h10.199v17.951h9.404v6.344h-9.404s.245 12.709 0 22.99c-.204 9.16 2.591 12.24 4.59 13.321a11.22 11.22 0 0 0 7.079.449zM195.629 170.314c0-10.057 5.202-17.156 14.28-18.074 6.446-.652 8.772.551 8.772.551v4.08a13.9 13.9 0 0 0-7.12.184c-4.08 1.264-5.793 7.568-5.793 9.689v26.519h-10.2zM252.849 190.183a17.3 17.3 0 0 1-8.16 3.489c-10.2 1.611-24.479-5.1-25.009-19.992-.592-15.258 14.401-21.643 24.193-21.378 16.524.449 22.439 12.913 22.439 20.012V193.1h-10.199v-20.705c0-4.508-2.04-16.115-12.526-16.319-10.485-.204-13.524 9.241-13.545 16.319 0 4.508.979 15.667 12.75 16.32 3.631.204 8.751-.796 10.098-2.04zM127.088 17.36c-3.876 7.487-8.404 23.561-8.404 23.561s-.408 1.204-1.224-.183c-.551-.898-6.997-9.69-10.2-13.647-3.733-4.55-20.297-22.032-39.33-12.118-17.135 8.996-10.567 30.824-5.304 39.045 3.203 4.977 9.364 12.77 11.118 14.952.306.388.225.53-.265.408-1.469-.387-5.304-1.407-12.24-3.203-6.283-1.611-12.362-1.366-14.177 1.347-1.285 2.04-2.04 5.018.469 9.649 5.039 9.077 18.91 23.5 41.696 28.212.449 0 .408.449 0 1.122a5.18 5.18 0 0 0 .327 5.875c3.406 4.08 7.16 5.569 22.276 8.16 21.011 3.61 28.395-3.509 29.273-4.427a.2.2 0 0 1 .122-.036.2.2 0 0 1 .122.036 51.47 51.47 0 0 0 32.517-2.978c14.626-6.12 20.215-11.852 20.399-15.32s-7.548-2.754-9.812-3.346c-.694-.183-.49-.49 0-.754 1.04-.653 3.611-1.714 5.671-2.795s23.5-11.852 27.723-30.069-12.24-18.359-21.134-14.565-17.237 7.956-19.114 8.833c-.306.143-.388 0-.265-.285a119 119 0 0 0 5.711-17.646c1.857-8.65 1-32.292-22.439-36.719a27 27 0 0 0-5.14-.469 32.19 32.19 0 0 0-28.376 17.36m.918 37.147c1.836-5.202 2.468-7.874 5.528-17.91 3.795-12.505 12.036-22.297 25.316-18.36 15.565 4.753 11.933 20.4 9.424 26.866-2.04 5.14-3.61 10.404-6.956 18.93-2.652 6.916 3.06 7.12 6.12 6.447 3.488-.796 13.606-5.998 19.951-8.976 4.712-2.162 13.422-7.425 18.359-2.325 4.936 5.1-.612 13.953-6.528 19.257-5.916 5.303-21.664 11.913-26.519 13.85-4.855 1.939-6.671 4.713-4.284 6.222s9.343 2.714 11.424 2.979c1.734.204 3.427.652 3.427 1.856 0 1.51-4.08 4.61-13.688 7.854a50.3 50.3 0 0 1-19.951 2.04c-8.363-1.551-9.689-2.897-13.585-1.408-2.897 1.163-3.142 3.488-7.365 5.161-4.222 1.673-10.444 1.326-15.217.51-4.774-.816-13.097-1.591-13.954-5.406-.346-1.53 1.306-2.468 2.693-4.08 1.387-1.611 2.591-4.467-3.427-5.752-1.612-.327-18.257-2.999-28.559-8.16s-14.28-13.423-13.28-16.32c.877-2.345 3.223-2.57 6.405-2.04 3.652.694 19.604 5.04 24.48 5.1 2.04 0 3.529-.387 4.222-1.61 1.897-3.306-3.916-7.284-8.69-13.077-6.895-8.16-20.012-21.888-10.2-34.128 6.549-8.16 19.441-2.815 24.826 3.407 4.08 4.794 11.261 14.545 16.769 21.154a9.22 9.22 0 0 0 6.731 3.835c2.754 0 5.263-2.04 6.671-6.12"/></svg>
